src/actions/22/category.svg

<svg xmlns="http://www.w3.org/2000/svg" viewBox="0 0 22 22">
    <path d="M10 3v2.09A6 6 0 0 0 5.086 10H3v2h2.09A6 6 0 0 0 11 17a6 6 0 0 0 5.914-5H19v-2h-2.09A6 6 0 0 0 12 5.086V3h-2zm1 3a5 5 0 0 1 5 5 5 5 0 0 1-5 5 5 5 0 0 1-5-5 5 5 0 0 1 5-5z" style="fill:currentColor;fill-opacity:1;stroke:none;color:#050505;opacity:.7"/>
</svg>

<svg xmlns="http://www.w3.org/2000/svg" viewBox="0 0 22 22">
  <defs id="defs3051">
    <style type="text/css" id="current-color-scheme">
      .ColorScheme-Text {
        color:#363636;
      }
      </style>
  </defs>
 <path 
    style="fill:currentColor;fill-opacity:1;stroke:none" 
    d="M 10 3 L 10 5.0898438 A 6 6 0 0 0 5.0859375 10 L 3 10 L 3 12 L 5.0898438 12 A 6 6 0 0 0 11 17 A 6 6 0 0 0 16.914062 12 L 19 12 L 19 10 L 16.910156 10 A 6 6 0 0 0 12 5.0859375 L 12 3 L 10 3 z M 11 6 A 5 5 0 0 1 16 11 A 5 5 0 0 1 11 16 A 5 5 0 0 1 6 11 A 5 5 0 0 1 11 6 z "
    class="ColorScheme-Text"
    />  
</svg>
